X:1
T:Title
%%score { 1 | ( 2 3 ) }
L:1/8
M:3/4
K:Bb
V:1 treble nm="Grand Piano"
V:2 bass 
V:3 bass 
V:1
 z2 z2[Q:1/4=100] [DF]>[EG] | [DF]2 [B,D]2 [DF]>[DB] | [Fd]2 [DB]2 [FA]>G | F3 G [A,CE][A,F] | %4
[M:2/4] [B,D]4 |[M:1/4] [DF]>[EG] |[M:3/4] [DF]2 [B,D]2 [DF]>[DB] | [Fd]2 [DB]2 [FA]>G | F3 B Ac | %9
[M:2/4] [DB]4 |[M:1/4] AB |[M:3/4] c>c cF AB | c>c cF [FB]c | d2 c2 B2 |[M:2/4] c4 |[M:1/4] dc | %16
[M:3/4] [DB]>[DB] [DB]F DF | B>B BF [B,FB][Fd] | [Gc]2 [DFB]2 [CFA]2 |[M:2/4] [DFB]4 |] %20
V:2
 z2 z2 [B,,B,]>[B,,B,] | [B,,B,]2 [B,,F,]2 [B,,F,]>[B,,F,] | [B,,B,]2 [B,,F,]2 [D,B,]>[E,B,E] | %3
 [F,B,D]3 [F,B,E] [F,,F,][F,,F,] |[M:2/4] [B,,F,]4 |[M:1/4] [B,,B,]>[B,,B,] | %6
[M:3/4] [B,,B,]2 [B,,F,]2 [B,,B,]>[B,,B,] | [B,,B,]2 [B,,F,]2 [D,B,]>[E,B,E] | %8
 [F,B,D]3 [F,B,D] [F,C][F,E] |[M:2/4] [B,,F,]4 |[M:1/4] [F,F][F,G,F] | %11
[M:3/4] [F,A,F]>[F,A,F] [F,A,F][F,A,] [F,CF][F,B,G] | %12
 [F,A,F]>[F,A,F] [F,A,F][F,A,] [D,B,][K:treble][F,A,F] | [B,F]2 [A,CF]2 [G,C=E]2 | %14
[M:2/4] [F,A,F]4 |[M:1/4][K:bass] [F,A,F][F,A,E] |[M:3/4] [B,,B,]>[B,,F,] [B,,F,]F, D,F, | %17
 B,>B, B,F, D,[B,,B,] | E,-[E,E] F,2 F,2 |[M:2/4] B,,4 |] %20
V:3
 x6 | x6 | x6 | x6 |[M:2/4] x4 |[M:1/4] x2 |[M:3/4] x6 | x6 | x6 |[M:2/4] x4 |[M:1/4] x2 | %11
[M:3/4] x6 | x5[K:treble] x | x6 |[M:2/4] x4 |[M:1/4][K:bass] x2 |[M:3/4] x6 | x6 | .G,2 z2 z2 | %19
[M:2/4] x4 |] %20

